X:8275
T:Jota Miudes (El Franco)
C:Trad.
M:3/8
L:1/8
Q:1/4=100
K:C
E/F/E/F/|:G E/F/E/F/|G E/F/E/F/|G A/G/F/E/|FDB,|
|G, D/E/D/E/|F D/E/D/E/|F G/F/E/D/|E C2-|C E/F/E/F/:|
|F D/E/D/E/|F G/F/E/D/|CEG|CEG|G,B,D|G,B,D|
F,A,C|F,A,C|G,B,D|G,B,D|C E/C/E/G/|C E/C/E/G/|
|G, B,/G,/B,/D/|G, B,/G,/B,/D/|F/D/B,/G,/B,/D/|
[CE][C/E/][C/E/][CE]|[C3E3]|
K:F
|F3/2G/A|AGF|G3/2F/E|E3|
|G3/2A/B|BAG|A3/2G/F|F3|
|F3/2G/A|AGF|G3/2F/E|GGG|
|F/G/F/E/ E|FFF|E/F/E/D/ C-|C
%"ltimos dos compases en la segunda vuelta|[C3E3]|[CEG] z2|"
